X:19022
T:Spirit of the Dance
R:Jig
C:Trad.
O:England
M:6/8
L:1/8
Q:1/8=220
K:D
"D"d2A B2A|"Bm"d2A B2A|"G"def g2f|"A"efd cBA|
"D"d2A B2A|"Bm"d2A B2A|"G"def gab|"A7"aec "D"d3:|
|:"A"Ace "G"g3|"D"f3 "Em"e3|"D"Adf "A"a3|"G"g3 "Bm"f3|
"A"Ace "G"g3|"Bm"f3 "A"e2f|"G"gab "D"afd|"A7"f2e "D"d3:|

